co/link.svg

<svg viewBox="0 0 24 24" fill="none" xmlns="http://www.w3.org/2000/svg" height="1em" width="1em">
  <path d="M17 17H14V15H17C18.6569 15 20 13.6569 20 12C20 10.3431 18.6569 9 17 9H14V7H17C19.7614 7 22 9.23858 22 12C22 14.7614 19.7614 17 17 17ZM10 17H7C4.23858 17 2 14.7614 2 12C2 9.23858 4.23858 7 7 7H10V9H7C5.34315 9 4 10.3431 4 12C4 13.6569 5.34315 15 7 15H10V17ZM17 13H7V11H17V13Z" fill="black"/>
</svg>

<svg viewBox="0 0 24 24" fill="none" xmlns="http://www.w3.org/2000/svg" height="1em" width="1em">
  <path d="M17 17h-3v-2h3a3 3 0 1 0 0-6h-3V7h3a5 5 0 0 1 0 10Zm-7 0H7A5 5 0 0 1 7 7h3v2H7a3 3 0 1 0 0 6h3v2Zm7-4H7v-2h10v2Z" fill="#000"/>
</svg>
